!!!OTL: Sanyue shangcha faleya
!!!ARE: Asia, China,ÿHubei Xiaogan
!! I, 376
!!!SCT: C2136
!!!YEM: Copyright 1995, estate of Helmut Schaffrath.
**kern
*ICvox
*Ivox
!! Mixed meters:  2/4; 3/4
*M3/4
*k[f#]
*G:
{8b
16b
16a
8g
16g
16e
=1
8dd
16b
16a
8g
16e
16g
=2
8.a
16b
4a}
=3
{8dd
16b
16a
8g
16e
16g
=4
8.a
16b
4a}
=5
{8g
16g
16e
8.d
16e
=6
16g
16a
16g
16e
4d
=7
8.d
16e
4b
4g}
=8
*M2/4
{8dd
16b
16a
8g
16f#
16e
=9
8d
8b
4d}
==
!!!AGN: Xiaodiao, Dengdiao, Gusao caicha diao, Madeng
!!!ONB: ESAC (Essen Associative Code) Database: SENGANSU
!!!AMT: irregular
!!!AIN: vox
!!!EED: Helmut Schaffrath
!!!EEV: 1.0
*-
